22x22/apps/com.syntevo.SmartSynchronize.svg

<svg xmlns="http://www.w3.org/2000/svg" width="22" height="22" version="1">
 <rect style="opacity:0.2" width="20" height="20" x="1" y="1.5" rx="1" ry="1"/>
 <rect style="fill:#f4f4f7" width="20" height="20" x="1" y="1" rx="1" ry="1"/>
 <path style="opacity:0.2;fill:#f4f4f7" d="M 2,1 C 1.446,1 1,1.446 1,2 v 0.5 c 0,-0.554 0.446,-1 1,-1 h 18 c 0.554,0 1,0.446 1,1 V 2 C 21,1.446 20.554,1 20,1 Z"/>
 <path style="opacity:0.1" d="M 4.9999997,5.5 12.144845,11.064369 4.9999997,16.5 V 14.415947 L 9.494581,11 4.9999997,7.5624093 Z M 17,7.2401579 12.144845,11.064369 17,14.802647 v -2.08381 L 14.816312,10.999919 17,9.281246 Z"/>
 <path style="fill:#d87d00" d="M 4.9999997,5 12.144845,10.564369 4.9999997,16 V 13.915947 L 9.494581,10.5 4.9999997,7.0624093 Z M 17,6.7401579 12.144845,10.564369 17,14.302647 v -2.08381 L 14.816312,10.499919 17,8.781246 Z"/>
</svg>

<svg xmlns="http://www.w3.org/2000/svg" width="22" height="22" version="1"><rect style="opacity:.2" width="20" height="20" x="1" y="1.5" rx="1" ry="1"/><rect style="fill:#f4f4f7" width="20" height="20" x="1" y="1" rx="1" ry="1"/><path style="opacity:.2;fill:#f4f4f7" d="M2 1c-.554 0-1 .446-1 1v.5c0-.554.446-1 1-1h18c.554 0 1 .446 1 1V2c0-.554-.446-1-1-1z"/><path style="opacity:.1" d="m5 5.5 7.145 5.564L5 16.5v-2.084L9.495 11 5 7.562zm12 1.74-4.855 3.824L17 14.803v-2.084l-2.184-1.72L17 9.282z"/><path style="fill:#d87d00" d="m5 5 7.145 5.564L5 16v-2.084L9.495 10.5 5 7.062zm12 1.74-4.855 3.824L17 14.303v-2.084l-2.184-1.72L17 8.782z"/></svg>
